svg/kettle_off_outline.svg

<svg xmlns="http://www.w3.org/2000/svg" viewBox="0 0 24 24"><path d="M22.1 21.5 2.4 1.7 1.1 3l3.6 3.6C4.3 7.3 4 8.1 4 9c0 1.2.5 2.3 1.4 3.3C4.5 13.5 4 15 4 16.5V20c0 1.1.9 2 2 2h13c.3 0 .6-.1.9-.2l.9.9zM8.2 10.1l-.6.3C7.2 10 7 9.5 7 9v-.1zM6 20v-3.5c0-1.8 1.6-3.9 3.7-4.9l1.2 1.2c-1.8.6-2.9 2-2.9 4.2v1h2v-1c0-.8 0-2.5 1.4-3.7l6.7 6.7zm10.9-9.9L19 8l3 3-2 2c.7 1.1 1 2.3 1 3.5v1.3l-2.1-2.1c-.4-1.8-2.1-3.6-4.3-4.3L12.2 9c1.6-.1 3.2.3 4.7 1.1M9.5 6.3 7.4 4.2C8.8 3.5 10.6 3 12.5 3c2.1 0 4.1.5 5.8 1.7l-2 2c-1-.6-2.4-1-3.8-1-1.1 0-2.2.2-3 .6"/></svg>

<?xml version="1.0" encoding="UTF-8"?><!DOCTYPE svg PUBLIC "-//W3C//DTD SVG 1.1//EN" "http://www.w3.org/Graphics/SVG/1.1/DTD/svg11.dtd"><svg xmlns="http://www.w3.org/2000/svg" xmlns:xlink="http://www.w3.org/1999/xlink" version="1.1" id="mdi-kettle-off-outline" width="24" height="24" viewBox="0 0 24 24"><path d="M22.1 21.5L2.4 1.7L1.1 3L4.7 6.6C4.3 7.3 4 8.1 4 9C4 10.2 4.5 11.3 5.4 12.3C4.5 13.5 4 15 4 16.5V20C4 21.1 4.9 22 6 22H19C19.3 22 19.6 21.9 19.9 21.8L20.8 22.7L22.1 21.5M8.2 10.1L7.6 10.4C7.2 10 7 9.5 7 9V8.9L8.2 10.1M6 20V16.5C6 14.7 7.6 12.6 9.7 11.6L10.9 12.8C9.1 13.4 8 14.8 8 17V18H10V17C10 16.2 10 14.5 11.4 13.3L18.1 20H6M16.9 10.1L19 8L22 11L20 13C20.7 14.1 21 15.3 21 16.5V17.8L18.9 15.7C18.5 13.9 16.8 12.1 14.6 11.4L12.2 9C13.8 8.9 15.4 9.3 16.9 10.1M9.5 6.3L7.4 4.2C8.8 3.5 10.6 3 12.5 3C14.6 3 16.6 3.5 18.3 4.7L16.3 6.7C15.3 6.1 13.9 5.7 12.5 5.7C11.4 5.7 10.3 5.9 9.5 6.3Z" /></svg>
